X: 21471
T: Of all Comforts I miscarry'd
N: The 'I' in the title was 'J'. This was before I and J had stabilized as different letters.
N: The index has a single 'I' section that has a mix of titles starting with I or J.
%R: air
B: James Oswald "The Caledonian Pocket Companion" v.2 p.147 #1
Z: 2018 John Chambers <jc:trillian.mit.edu>
M: C
L: 1/8
K: Dm
|:\
"_Slow"A2d2 (d^c)(=BA) | d2e2 f2F2 |\
G3A (c_B)(AG) | A2(d^c) d2D2 ::\
a3g (gf)(ed) | {ga}b2(ag) a3a |\
(d'c')(ba) (ba)(gf) |
(gf)(ed) a4 |\
F2FF c2c2 | A2A2 d3e |\
(fe)(d^c) d2G2 | A3A D4 |\
a3g (gf)(ed) | (gf)(ed) T^c2(=BA) |
(df)(eg) (fb)(ag) | f2(ed) d4 ::\
A3G (GF)(ED) | (df)(eg) (fd)(cA) |\
G3B (Ab)(ag) | (fe)(d^c) d2D2 :|
|:\
a2(gf) (ed)(ec) | (fa)(gb) a3a |\
d'2(c'b) d'2(c'a) | Tg2(fg) a4 |\
(BA)(GF) c3c | (AG)(Ac) d3e |
(fe)(d^c) (dA)(BG) | A3A D4 |\
a3g (3(fed) d2 | (3(bag) (3(fed) (3(^c=BA) A2 |\
(3(def) (3(gfe) (3(fga) (3(bag) | f2(Te>d) d4 :|


